icons/sanitizer.svg

<svg xmlns="http://www.w3.org/2000/svg" viewBox="0 0 24 24" fill="currentColor">
  <path d="M8.25 3c0-.41421.33579-.75.75-.75h5.3c.6439 0 1.2251.31441 1.6304.71967l1.5 1.5c.2928.29289.2928.76777 0 1.06066-.2929.29289-.7678.29289-1.0607 0l-1.5-1.5C14.675 3.83559 14.4561 3.75 14.3 3.75h-1.55v.49958c1.2298.29367 2.2298 1.21192 2.6533 2.4284 1.3941.60398 2.3467 1.98177 2.3467 3.62212v9.2c0 1.2142-1.0358 2.25-2.25 2.25h-7c-1.34671 0-2.25-1.069-2.25-2.25v-9.2c0-1.5485.84896-2.86302 2.1168-3.51347.42138-1.25264 1.51707-2.31389 2.8832-2.57516V3.75H9c-.41421 0-.75-.33579-.75-.75Zm8 14.2504v-4.6H12.7c-.4858 0-.95.4642-.95.95v2.7c0 .4858.4642.95.95.95h3.55Zm0-6.1H12.7c-1.3142 0-2.45 1.1358-2.45 2.45v2.7c0 1.3142 1.1358 2.45 2.45 2.45h3.55v.7497c0 .3858-.3642.75-.75.75h-7c-.45329 0-.75-.3309-.75-.75v-9.2c0-1.38578 1.06423-2.45 2.45-2.45h3.6c.1959 0 .3854.02126.5663.06169.1235.08748.273.13761.4298.13827.8682.37088 1.4539 1.22197 1.4539 2.25004v.8503ZM11.9 5.6499c-.5843 0-1.1426.27412-1.5537.7002h3.1474c-.4091-.43825-.9794-.7002-1.5937-.7002Z"/>
</svg>

<svg width="24" height="24" viewBox="0 0 24 24" fill="none" xmlns="http://www.w3.org/2000/svg">
<path fill-rule="evenodd" clip-rule="evenodd" d="M8.25 3C8.25 2.58579 8.58579 2.25 9 2.25H14.3C14.9439 2.25 15.5251 2.56441 15.9304 2.96967L17.4304 4.46967C17.7232 4.76256 17.7232 5.23744 17.4304 5.53033C17.1375 5.82322 16.6626 5.82322 16.3697 5.53033L14.8697 4.03033C14.675 3.83559 14.4561 3.75 14.3 3.75H12.75V4.24958C13.9798 4.54325 14.9798 5.4615 15.4033 6.67798C16.7974 7.28196 17.75 8.65975 17.75 10.3001V11.9004V18.0004V19.5001C17.75 20.7143 16.7142 21.7501 15.5 21.7501H8.5C7.15329 21.7501 6.25 20.6811 6.25 19.5001V10.3001C6.25 8.7516 7.09896 7.43708 8.3668 6.78663C8.78818 5.53399 9.88387 4.47274 11.25 4.21147V3.75H9C8.58579 3.75 8.25 3.41421 8.25 3ZM16.25 17.2504V12.6504H12.7C12.2142 12.6504 11.75 13.1146 11.75 13.6004V16.3004C11.75 16.7862 12.2142 17.2504 12.7 17.2504H16.25ZM16.25 11.1504H12.7C11.3858 11.1504 10.25 12.2862 10.25 13.6004V16.3004C10.25 17.6146 11.3858 18.7504 12.7 18.7504H16.25V19.5001C16.25 19.8859 15.8858 20.2501 15.5 20.2501H8.5C8.04671 20.2501 7.75 19.9192 7.75 19.5001V10.3001C7.75 8.91432 8.81423 7.8501 10.2 7.8501H13.8C13.9959 7.8501 14.1854 7.87136 14.3663 7.91179C14.4898 7.99927 14.6393 8.0494 14.7961 8.05006C15.6643 8.42094 16.25 9.27203 16.25 10.3001V11.1504ZM11.9 5.6499C11.3157 5.6499 10.7574 5.92402 10.3463 6.3501H13.4937C13.0846 5.91185 12.5143 5.6499 11.9 5.6499Z" fill="black"/>
</svg>
